svg/emoji_u1fad2.svg

<?xml version="1.0" encoding="utf-8"?>
<!-- Generator: Adobe Illustrator 24.0.3, SVG Export Plug-In . SVG Version: 6.00 Build 0)  -->
<svg version="1.1" id="Layer_2" xmlns="http://www.w3.org/2000/svg" xmlns:xlink="http://www.w3.org/1999/xlink" x="0" y="0"
	 viewBox="0 0 128 128" style="enable-background:new 0 0 128 128;" xml:space="preserve">
<g>
	<linearGradient id="SVGID_1_" gradientUnits="userSpaceOnUse" x1="51.6307" y1="50.0541" x2="99.5191" y2="32.8634">
		<stop  offset="0" style="stop-color:#57BB8A"/>
		<stop  offset="1" style="stop-color:#87CEAC"/>
	</linearGradient>
	<path style="fill:url(#SVGID_1_);" d="M50.66,39.14c9.56,5.65,27.38,10.18,38.31,8.17c10-1.84,17.53-6.58,23.35-14.18
		c5.67-7.4,6.89-15.87,4.53-15.67c-3.19,0.27-6.94,2.5-11.35,5.38C89.35,33.38,70.33,40.23,50.66,39.14"/>
	<g>
		<path style="fill:#C0CA33;" d="M7.27,64.52c-6.68,15.67-2.05,33.58,4.46,36.91s23.5-2.98,32.52-18.03
			c12.65-21.11,5.75-31.7-4.46-36.91S15.72,44.69,7.27,64.52z"/>
	</g>
	<g>
		<path style="fill:#C0CA33;" d="M54.7,96.43c4.77,16.05,19.52,26.7,26.54,25.13c7.02-1.57,15.91-17.01,13.29-34.04
			C90.86,63.6,78.99,59.93,67.99,62.39C57,64.85,48.66,76.13,54.7,96.43z"/>
	</g>
	<path style="fill:#A3B523;" d="M67.99,62.39c-8.32,1.86-15.1,8.77-15.31,20.8c2.87-3.38,7.5-5.42,12.02-5.42
		c6.43,0,12.46,3.39,17.14,7.79c5.55,5.22,9.59,12,11.61,19.35c1.46-5.19,2.03-11.18,1.08-17.39C90.86,63.6,78.99,59.93,67.99,62.39
		z"/>
	<path style="fill:#A3B523;" d="M39.78,46.49c-4.76-2.43-10.32-2.98-15.75-0.87c0.49-0.03,0.97-0.05,1.45-0.05
		c2.7,0.01,5.67,0.42,7.48,2.42c1.08,1.19,1.63,2.83,2.9,3.82c0.62,0.48,1.37,0.77,2.07,1.13c4.26,2.2,6.54,7.03,7.45,11.74
		c1.11,5.77,0.62,11.64-0.4,17.46C56.6,61.87,49.79,51.6,39.78,46.49z"/>
	<path style="fill:#87A194;" d="M90.87,58.86c-37.73-7.07-73.91-37.67-79.36-43.1s4.55-15.17,12.26-5.11
		c7.57,9.89,34.22,34.18,67.1,42.69V58.86z"/>
	<path style="fill:#69937D;" d="M67.01,71.16c0.58,0.21,1.3-0.1,1.75-0.83c1.06-1.71-0.39-2.34-0.98-3.3
		c-0.89-1.46-1.32-3.44-1.51-5.34c-0.26-2.52-0.1-5.16,0.05-7.79c0.07-1.11,0.12-2.28-0.26-3.19c-0.64-1.52-4.17-5.25-4.65-2.92
		c-1.99,9.63,1.55,20.04,5.28,23.18C66.79,71.05,66.9,71.12,67.01,71.16z"/>
	<path style="fill:#87A194;" d="M37.04,51.76c-0.69,0-1.33-0.47-1.52-1.18c-0.45-1.69,1.32-1.76,2.31-2.37
		c1.5-0.91,2.72-2.37,3.67-3.85c1.25-1.95,2.11-4.13,2.97-6.29c0.36-0.92,0.76-1.87,1.51-2.49c1.26-1.03,4.79-0.06,4.4,1.96
		c-1.02,5.33-7.78,12.73-12.92,14.16C37.32,51.74,37.18,51.76,37.04,51.76z"/>
	
		<linearGradient id="SVGID_2_" gradientUnits="userSpaceOnUse" x1="124.5378" y1="72.6143" x2="81.9823" y2="89.1525" gradientTransform="matrix(0.5338 0.8456 -0.8456 0.5338 108.8133 -58.0302)">
		<stop  offset="0" style="stop-color:#0D904F"/>
		<stop  offset="0.9551" style="stop-color:#097138"/>
	</linearGradient>
	<path style="fill:url(#SVGID_2_);" d="M58.89,42.2c0,0,17.24,43.05,46.36,52.23c10,3.15,16.83,2.8,18.31-0.92
		c2.59-6.49-6.79-20.81-13.54-27.48C94,50.17,58.89,42.2,58.89,42.2z"/>
	<path style="opacity:0.37;fill:#212121;" d="M58.92,42.27c0.59,1.46,17.72,43.14,46.33,52.16c8.29,2.62,14.39,2.81,17.09,0.68
		c-3.56-3.62-10.55-10.44-21.73-20.21C86.06,62.19,65.18,46.82,58.92,42.27z"/>
</g>
</svg>

<?xml version="1.0" encoding="UTF-8" standalone="no"?>
<!DOCTYPE svg PUBLIC "-//W3C//DTD SVG 1.1//EN" "http://www.w3.org/Graphics/SVG/1.1/DTD/svg11.dtd">
<svg width="100%" height="100%" viewBox="0 0 128 128" version="1.1" xmlns="http://www.w3.org/2000/svg" xmlns:xlink="http://www.w3.org/1999/xlink" xml:space="preserve" xmlns:serif="http://www.serif.com/" style="fill-rule:evenodd;clip-rule:evenodd;stroke-linejoin:round;stroke-miterlimit:2;">
    <g>
        <path d="M50.66,39.14C60.22,44.79 78.04,49.32 88.97,47.31C98.97,45.47 106.5,40.73 112.32,33.13C117.99,25.73 119.21,17.26 116.85,17.46C113.66,17.73 109.91,19.96 105.5,22.84C89.35,33.38 70.33,40.23 50.66,39.14" style="fill:url(#_Linear1);fill-rule:nonzero;"/>
        <g>
            <path d="M7.27,64.52C0.59,80.19 5.22,98.1 11.73,101.43C18.24,104.76 35.23,98.45 44.25,83.4C56.9,62.29 50,51.7 39.79,46.49C29.58,41.28 15.72,44.69 7.27,64.52Z" style="fill:rgb(192,202,51);fill-rule:nonzero;"/>
        </g>
        <g>
            <path d="M54.7,96.43C59.47,112.48 74.22,123.13 81.24,121.56C88.26,119.99 97.15,104.55 94.53,87.52C90.86,63.6 78.99,59.93 67.99,62.39C57,64.85 48.66,76.13 54.7,96.43Z" style="fill:rgb(192,202,51);fill-rule:nonzero;"/>
        </g>
        <path d="M90.87,58.86C53.14,51.79 16.96,21.19 11.51,15.76C6.06,10.33 16.06,0.59 23.77,10.65C31.34,20.54 57.99,44.83 90.87,53.34L90.87,58.86Z" style="fill:rgb(135,161,148);fill-rule:nonzero;"/>
        <path d="M67.01,71.16C67.59,71.37 68.31,71.06 68.76,70.33C69.82,68.62 68.37,67.99 67.78,67.03C66.89,65.57 66.46,63.59 66.27,61.69C66.01,59.17 66.17,56.53 66.32,53.9C66.39,52.79 66.44,51.62 66.06,50.71C65.42,49.19 61.89,45.46 61.41,47.79C59.42,57.42 62.96,67.83 66.69,70.97C66.79,71.05 66.9,71.12 67.01,71.16Z" style="fill:rgb(105,147,125);fill-rule:nonzero;"/>
        <path d="M37.04,51.76C36.35,51.76 35.71,51.29 35.52,50.58C35.07,48.89 36.84,48.82 37.83,48.21C39.33,47.3 40.55,45.84 41.5,44.36C42.75,42.41 43.61,40.23 44.47,38.07C44.83,37.15 45.23,36.2 45.98,35.58C47.24,34.55 50.77,35.52 50.38,37.54C49.36,42.87 42.6,50.27 37.46,51.7C37.32,51.74 37.18,51.76 37.04,51.76Z" style="fill:rgb(135,161,148);fill-rule:nonzero;"/>
        <path d="M58.89,42.2C58.89,42.2 76.13,85.25 105.25,94.43C115.25,97.58 122.08,97.23 123.56,93.51C126.15,87.02 116.77,72.7 110.02,66.03C94,50.17 58.89,42.2 58.89,42.2Z" style="fill:rgb(16,141,79);fill-rule:nonzero;"/>
    </g>
    <defs>
        <linearGradient id="_Linear1" x1="0" y1="0" x2="1" y2="0" gradientUnits="userSpaceOnUse" gradientTransform="matrix(47.8884,-17.1907,17.1907,47.8884,51.6307,50.0541)"><stop offset="0" style="stop-color:rgb(87,187,138);stop-opacity:1"/><stop offset="1" style="stop-color:rgb(135,206,172);stop-opacity:1"/></linearGradient>
    </defs>
</svg>
